X:1
T:Title
%%score { ( 1 3 4 ) | ( 2 5 ) }
L:1/8
M:6/8
K:Bb
V:1 treble nm="Grand Piano"
V:3 treble 
V:4 treble 
V:2 bass 
V:5 bass 
V:1
 z3 z2[Q:1/4=90] [DF] | .[DF]6 | .[DF]6 | .[DF]6 | [Fd]6 | c-[A,c-][A,c-] [=Ec][EG][Ed] | %6
 c-[A,c-][A,c-] [=Ec][EG][Ed] | F3 =E3 | z6 | .[DF]6 | .[DF]6 | .[DF]6 | [Fd]6 | .[Fc]6 | .[Af]6 | %15
 [DB-]3 B3- |[M:5/8] B- B3 z |[M:1/8] d |[M:3/4] d3 D2 d | d3 D2 D | [^Fd]4 z2 | [GB]4- [GB][Gd] | %22
 [=Ec]4 z2 | [Ec]4 z2 | A3 B3 | z6 | [DF]4 z2 | [DB]4[K:bass][K:treble] z2 | [Ec]4 z2 | %29
 [Fd]4- [Fd][_Ad] | [Ge]4 z2 | f4 z2 | z6 |[M:5/8] z5 |] %34
V:2
 z3 z2 [B,,B,] | [B,,B,]B,,B,, B,,[B,,B,][B,,B,] | [B,,B,]B,,B,, z EB,, | %3
 B,,B,,B,, B,,[B,,B,][B,,B,] | [B,,B,]B,,B,, B,,2 [B,,B,] | [F,A,]F,F, [C,G,][C,C][C,B,] | %6
 [F,A,]F,F, [C,G,][C,C][C,B,] | [F,A,]F,F, [G,B,]G,G, | [A,E]3- [A,E] z [F,A,E] | %9
 [B,,B,]B,,B,, B,,[B,,B,][B,,B,] | [B,,B,]B,,B,, z EB,, | B,,B,,B,, B,,[B,,B,][B,,B,] | %12
 [B,,B,]B,,B,, B,,2 [B,,B,] | [F,A,]F,F, F,[F,B,F][F,CF] | [F,C]F,F, z A[F,A,E] | %15
 B,,B,,B,, [B,,G,]B,,B,, |[M:5/8] [B,,F,]- [B,,F,]3 z |[M:1/8] D |[M:3/4] D3 D,2 D | D3 D,2 D, | %20
 [D,A,]D, D,D, [D,A,][D,C] | [G,D]4- [G,D][G,B,] | [C,G,]C, .C,2 =E[C,B,] | %23
 [C,G,]C, .C,2[K:treble] B[K:bass][C,C] | [F,C]F, F,[F,D] F,F, | [F,E]4 z [F,A,E] | %26
 [B,,B,]B,, B,,B,, B,,[B,,F,] | [B,,F,]B,, B,,B,, [B,,F,][B,,F,] | [F,A,]F, F,F, [F,B,D][F,A,E] | %29
 B,2 B, B,2 B, | [E,B,]E, E,E, [E,B,][E,E] | [F,D]F, F,[F,C] [F,C][F,A,E] | %32
 [B,,B,][B,,B,] [B,,F,][B,,G,] [B,,G,][B,,G,] |[M:5/8] [B,,F,]-[B,,F,]- [B,,F,]3 |] %34
V:3
 x6 | z B,B, B,[EG][_D=E] | z B,B, z G[B,_D=E] | B,B,B, B,[DB][Ec] | z B,B, B,2 [Fd] | F3 z3 | %6
 F3 z3 | c-[A,c-][A,c-] c-[B,c-][B,c-] | [Fc]3- [Fc] z F | z B,B, B,[EG][_D=E] | %10
 z B,B, z G[B,_D=E] | B,B,B, B,[DB][Ec] | z B,B, B,2 [Fd] | z A,A, A,de | z CC z ec | z3 E3 | %16
[M:5/8] x5 |[M:1/8] x |[M:3/4] x6 | x6 | z A, A,A, [^Fc][FA] | x6 | z G, .G,2 G[=Ed] | %23
 z G, .G,2 d[B=e] | f-[Cf-] [Cf-]2 [Df-][Df-] | [Af]4 z F | z B, B,B, [B,EG][EA] | %27
 z[K:bass] F, F,F,[K:treble] [CA][DB] | z A, A,A, Bc | x6 | z B, B,B, [Gd][Gc] | %31
 B-[DB-] [DB-][AB-] [AB-e][B-c] | [DB-][DB-] [DB-][EB-] [EB-][EB-] |[M:5/8] [DB]-[DB]- [DB]3 |] %34
V:4
 x6 | x6 | z3 .B,3 | x6 | x6 | x6 | x6 | x6 | x6 | x6 | z3 .B,3 | x6 | x6 | x6 | z3 .C3 | %15
 B,B,F, z G,G, |[M:5/8] D- D3 z |[M:1/8] x |[M:3/4] x6 | x6 | x6 | x6 | z2 z .B,3 | z2 z .G,3 | %24
 x6 | x6 | x6 | x[K:bass] x3[K:treble] x2 | x6 | x6 | x6 | x6 | x6 |[M:5/8] x5 |] %34
V:5
 x6 | x6 | z3 .B,,3 | x6 | x6 | x6 | x6 | x6 | x6 | x6 | z3 .B,,3 | x6 | x6 | x6 | z3 .F,3 | x6 | %16
[M:5/8] x5 |[M:1/8] x |[M:3/4] x6 | x6 | x6 | x6 | z2 z .C,3 | z2 z .C,3[K:treble][K:bass] | x6 | %25
 x6 | x6 | x6 | x6 | x6 | x6 | x6 | x6 |[M:5/8] x5 |] %34

